X:1
T:The Ferry
M:6/8
L:1/8
C:J S Kerr
S:RSCDS Book 20
R:Jig
%
K:A
||:cBc Ace|f3 efg|a2 c cBA|cBB Bed|!
cBc Ace|f3 efg|a2 c BAB|1A3 z3:||2A3 zed|!
||:cea aga|fdf agf|e2 c cBA|cBB Bed|!
cBc Ace|f3 efg|a2 c BAB|A3-A2 z:||
